X: 2951
T:Fred Finn's
M:4/4
L:1/8
R:reel
K:DMaj
A3 F ABde|fdef d2 cA|~B3 E GFGB|A ~F3 DEFG|
!A2 AF ABde|fdef d2 cd|BAFB ABde|1faea fedB:|2faea fdde|
!|:~f3 a bfaf|defd e2 de|fbba b3 a|fbba feeg|
!~f3 a bfaf|defd efdB|A2 FB ABdf|afge fdde:|
